configs/network-logos/arbitrum-one-logo-light.svg

<svg width="95" height="24" viewBox="0 0 95 24" fill="none" xmlns="http://www.w3.org/2000/svg">
<g clip-path="url(#clip0_11424_4341)">
<path d="M30.8334 6.17571C31.0543 6.17571 31.2462 6.21968 31.3987 6.31333C31.5511 6.40697 31.7036 6.58399 31.8509 6.84952L34.7666 12.1452C34.7962 12.204 34.8008 12.2531 34.786 12.2925C34.7711 12.3319 34.7272 12.3513 34.6581 12.3513H33.5371C33.4389 12.3513 33.3698 12.3119 33.3356 12.2382L32.7109 11.1025H28.5658L27.956 12.2382C27.9166 12.317 27.8481 12.3513 27.7544 12.3513H26.609C26.5301 12.3513 26.4862 12.3319 26.4713 12.2925C26.4565 12.2531 26.4616 12.204 26.4908 12.1452L29.387 6.84495C29.5343 6.57942 29.677 6.40241 29.8198 6.30876C29.9626 6.21511 30.1247 6.17114 30.3115 6.17114H30.8328V6.17628L30.8334 6.17571ZM29.1174 10.0746H32.1558L30.7546 7.48849C30.73 7.44909 30.7003 7.42453 30.6563 7.42453H30.6021C30.5627 7.42453 30.5284 7.44395 30.5039 7.48849L29.1174 10.0746Z" fill="#213147"/>
<path d="M41.1882 6.17562C41.8666 6.17562 42.3485 6.32808 42.6438 6.63301C42.939 6.93793 43.0863 7.39018 43.0863 7.99032V8.49168C43.0863 8.99818 42.9829 9.39618 42.7768 9.69139C42.5707 9.98661 42.236 10.1733 41.769 10.2567L43.2782 12.1251C43.3079 12.1548 43.3176 12.1987 43.3027 12.2576C43.293 12.3164 43.2439 12.3461 43.16 12.3461H42.0242C41.9454 12.3461 41.8963 12.3364 41.8666 12.3215C41.8369 12.3021 41.8078 12.2724 41.7781 12.233L40.3819 10.3989H37.5303V12.1542C37.5303 12.2821 37.4663 12.3461 37.3384 12.3461H36.3848C36.2472 12.3461 36.1832 12.2821 36.1832 12.1542V6.44057C36.1832 6.26356 36.2717 6.17505 36.4488 6.17505H41.1888L41.1882 6.17562ZM37.5348 9.32251H40.913C41.2128 9.32251 41.4246 9.25856 41.5474 9.13065C41.6702 9.00274 41.7341 8.80631 41.7341 8.54079V8.17191C41.7341 7.90638 41.6702 7.70995 41.5474 7.58204C41.4246 7.45414 41.2128 7.39018 40.913 7.39018H37.6485C37.5697 7.39018 37.5354 7.42444 37.5354 7.4981V9.32251H37.5348Z" fill="#213147"/>
<path d="M50.4668 6.17554C51.0715 6.17554 51.5043 6.29831 51.7602 6.53928C52.016 6.78025 52.1439 7.14399 52.1439 7.63107V8.0542C52.1439 8.54584 51.9572 8.91929 51.5786 9.17511C51.9817 9.41094 52.1884 9.78953 52.1884 10.3109V10.8225C52.1884 11.0583 52.1639 11.2702 52.1096 11.4569C52.0554 11.6436 51.972 11.8058 51.8492 11.9388C51.7265 12.0713 51.5689 12.1747 51.3673 12.2438C51.1657 12.3129 50.9196 12.3517 50.625 12.3517H45.3836C45.2066 12.3517 45.118 12.2632 45.118 12.0862V6.44163C45.118 6.26462 45.2066 6.17611 45.3836 6.17611H50.4674L50.4668 6.17554ZM46.4696 8.74228H50.0882C50.3834 8.74228 50.5799 8.69831 50.6878 8.6098C50.7957 8.52129 50.8454 8.39338 50.8454 8.2215V7.92172C50.8454 7.73956 50.7963 7.60709 50.6929 7.51858C50.5896 7.43521 50.4223 7.39067 50.1961 7.39067H46.5873C46.5085 7.39067 46.4742 7.43007 46.4742 7.50373V8.74285H46.4691L46.4696 8.74228ZM46.4696 9.70102V11.0138C46.4696 11.0926 46.509 11.1269 46.5827 11.1269H50.2013C50.4371 11.1269 50.6044 11.0829 50.7026 10.9989C50.8008 10.9156 50.8551 10.778 50.8551 10.5907V10.2561C50.8551 10.0739 50.8008 9.93628 50.6929 9.8432C50.585 9.74956 50.3834 9.70045 50.0882 9.70045H46.4696V9.70102Z" fill="#213147"/>
<path d="M55.4768 6.17554C55.6047 6.17554 55.6687 6.23949 55.6687 6.3674V12.1547C55.6687 12.2826 55.6047 12.3466 55.4768 12.3466H54.5232C54.3856 12.3466 54.3217 12.2826 54.3217 12.1547V6.3674C54.3217 6.23949 54.3908 6.17554 54.5232 6.17554H55.4768Z" fill="#213147"/>
<path d="M64.7206 6.17554C64.8582 6.17554 64.9221 6.23949 64.9221 6.3674V7.2325C64.9221 7.37011 64.853 7.43407 64.7206 7.43407H61.9522V12.1541C61.9522 12.282 61.8883 12.346 61.7604 12.346H60.7965C60.6686 12.346 60.6046 12.282 60.6046 12.1541V7.43407H57.8363C57.6987 7.43407 57.6348 7.36497 57.6348 7.2325V6.3674C57.6348 6.23949 57.7039 6.17554 57.8363 6.17554H64.72H64.7206Z" fill="#213147"/>
<path d="M71.6973 6.17562C72.3756 6.17562 72.8576 6.32808 73.1528 6.63301C73.448 6.93793 73.5953 7.39018 73.5953 7.99032V8.49168C73.5953 8.99818 73.492 9.39618 73.2858 9.69139C73.0791 9.98661 72.7451 10.1733 72.278 10.2567L73.7872 12.1251C73.8169 12.1548 73.8266 12.1987 73.8118 12.2576C73.802 12.3164 73.7529 12.3461 73.669 12.3461H72.5332C72.4544 12.3461 72.4053 12.3364 72.3756 12.3215C72.3459 12.3021 72.3168 12.2724 72.2871 12.233L70.891 10.3989H68.0393V12.1542C68.0393 12.2821 67.9754 12.3461 67.8474 12.3461H66.8938C66.7562 12.3461 66.6923 12.2821 66.6923 12.1542V6.44057C66.6923 6.26356 66.7808 6.17505 66.9578 6.17505H71.6978L71.6973 6.17562ZM68.049 9.32251H71.4272C71.727 9.32251 71.9388 9.25856 72.0616 9.13065C72.1843 9.00274 72.2483 8.80631 72.2483 8.54079V8.17191C72.2483 7.90638 72.1843 7.70995 72.0616 7.58204C71.9388 7.45414 71.727 7.39018 71.4272 7.39018H68.1626C68.0838 7.39018 68.0496 7.42444 68.0496 7.4981V9.32251H68.049Z" fill="#213147"/>
<path d="M76.6589 6.17554C76.7868 6.17554 76.8508 6.23949 76.8508 6.3674V9.88774C76.8508 10.1236 76.8702 10.3206 76.9096 10.473C76.949 10.6306 77.013 10.7534 77.1015 10.8419C77.19 10.9356 77.3082 10.9995 77.4607 11.0338C77.6131 11.0732 77.7998 11.0926 78.0311 11.0926H80.4745C80.7058 11.0926 80.8925 11.0732 81.045 11.0338C81.1974 10.9944 81.3156 10.9304 81.4041 10.8419C81.4926 10.7483 81.5566 10.6255 81.5908 10.473C81.6251 10.3154 81.6451 10.1241 81.6451 9.88774V6.3674C81.6451 6.23949 81.709 6.17554 81.837 6.17554H82.8008C82.9287 6.17554 82.9927 6.23949 82.9927 6.3674V10.0208C82.9927 10.4439 82.9487 10.8025 82.8602 11.1023C82.7717 11.3975 82.629 11.6385 82.4325 11.8252C82.2361 12.0119 81.9803 12.145 81.6656 12.2284C81.351 12.3117 80.9724 12.3511 80.5247 12.3511H77.9826C77.5349 12.3511 77.1563 12.3117 76.8468 12.2284C76.5373 12.145 76.2815 12.0119 76.0845 11.8252C75.8881 11.6385 75.7453 11.3975 75.6517 11.1023C75.558 10.8071 75.514 10.4433 75.514 10.0208V6.3674C75.514 6.23949 75.5831 6.17554 75.7156 6.17554H76.6595H76.6589Z" fill="#213147"/>
<path d="M86.7825 6.17554C86.9104 6.17554 87.0235 6.18524 87.1171 6.20009C87.2108 6.21951 87.2941 6.2492 87.3632 6.30345C87.4323 6.35255 87.4957 6.42165 87.5551 6.50502C87.6093 6.58838 87.6682 6.70145 87.727 6.8442L89.5611 11.0777C89.5856 11.132 89.625 11.1566 89.6839 11.1566H89.7918C89.8506 11.1566 89.89 11.132 89.9146 11.0777L91.7487 6.8442C91.8075 6.70145 91.8669 6.58838 91.9205 6.50502C91.9748 6.42165 92.0387 6.35255 92.1124 6.30345C92.1815 6.25434 92.2649 6.22008 92.3534 6.20009C92.447 6.18068 92.5549 6.17554 92.6829 6.17554H93.6268C93.9317 6.17554 94.1384 6.24463 94.2463 6.38225C94.3542 6.51986 94.4039 6.75569 94.4039 7.09031V12.1547C94.4039 12.2826 94.3348 12.3466 94.2023 12.3466H93.3024C93.1745 12.3466 93.1106 12.2826 93.1106 12.1547V7.5477C93.1106 7.48888 93.086 7.45919 93.0415 7.45919H92.9627C92.9038 7.45919 92.8644 7.48375 92.8496 7.52828L91.0697 11.4815C91.0006 11.6391 90.927 11.7767 90.8533 11.8846C90.7796 11.9925 90.7008 12.081 90.6175 12.1553C90.5341 12.2244 90.4353 12.278 90.3274 12.3077C90.2195 12.3374 90.0916 12.3517 89.9437 12.3517H89.5205C89.3732 12.3517 89.2453 12.3369 89.1368 12.3077C89.0289 12.278 88.9301 12.2289 88.8467 12.1553C88.7634 12.0862 88.6794 11.9931 88.6109 11.8846C88.5373 11.7767 88.4636 11.6436 88.3945 11.4815L86.6146 7.52828C86.5952 7.47918 86.5604 7.45919 86.5016 7.45919H86.4228C86.3736 7.45919 86.3537 7.48888 86.3537 7.5477V12.1547C86.3537 12.2826 86.2897 12.3466 86.1618 12.3466H85.2619C85.1243 12.3466 85.0603 12.2826 85.0603 12.1547V7.09031C85.0603 6.75569 85.1146 6.51986 85.2179 6.38225C85.3258 6.24463 85.5325 6.17554 85.8426 6.17554H86.7819H86.7825Z" fill="#213147"/>
<path d="M29.5309 14.175C29.7964 14.175 30.0174 14.1996 30.2047 14.2487C30.3914 14.2978 30.5439 14.3812 30.6569 14.4897C30.7751 14.5976 30.8585 14.7404 30.9076 14.9128C30.9619 15.0847 30.9864 15.2965 30.9864 15.5472V16.442C30.9864 16.6927 30.9619 16.904 30.9076 17.081C30.8534 17.258 30.77 17.4007 30.6569 17.5087C30.5387 17.6166 30.3914 17.6954 30.2047 17.7445C30.018 17.7936 29.7918 17.8182 29.5309 17.8182H27.9183C27.6528 17.8182 27.4318 17.7936 27.2445 17.7445C27.0624 17.6954 26.9099 17.6166 26.7923 17.5087C26.6741 17.4007 26.5907 17.258 26.5364 17.081C26.4822 16.904 26.4576 16.6927 26.4576 16.442V15.5472C26.4576 15.2965 26.4822 15.0853 26.5364 14.9128C26.5907 14.7409 26.6741 14.5982 26.7923 14.4897C26.9105 14.3812 27.0578 14.2978 27.2445 14.2487C27.4267 14.1996 27.6528 14.175 27.9183 14.175H29.5309ZM27.2594 16.3923C27.2594 16.5299 27.2691 16.643 27.2936 16.7315C27.3182 16.8252 27.3524 16.8988 27.4067 16.9525C27.4609 17.0067 27.5294 17.0461 27.618 17.0656C27.7065 17.085 27.8195 17.0998 27.9526 17.0998H29.5012C29.6388 17.0998 29.7473 17.0901 29.8358 17.0656C29.9243 17.041 29.9934 17.0067 30.0471 16.9525C30.1013 16.8982 30.1356 16.8246 30.1601 16.7315C30.1847 16.6379 30.1944 16.5248 30.1944 16.3923V15.6106C30.1944 15.473 30.1847 15.3599 30.1601 15.2714C30.1356 15.1778 30.1013 15.1041 30.0471 15.0504C29.9928 14.9962 29.9243 14.9568 29.8358 14.9374C29.7473 14.9128 29.6342 14.9031 29.5012 14.9031H27.9526C27.815 14.9031 27.7065 14.9128 27.618 14.9374C27.5294 14.9619 27.4604 14.9962 27.4067 15.0504C27.3524 15.1047 27.3182 15.1783 27.2936 15.2714C27.2691 15.3651 27.2594 15.4781 27.2594 15.6106V16.3923Z" fill="#1B4ADD"/>
<path d="M33.0906 14.1751C33.174 14.1751 33.2431 14.1802 33.2973 14.1848C33.3516 14.1899 33.4007 14.2042 33.4447 14.2287C33.4841 14.2533 33.528 14.283 33.5629 14.3224C33.6023 14.3618 33.6462 14.416 33.6953 14.48L35.6374 17.0267C35.6522 17.0513 35.6716 17.061 35.7065 17.061H35.7556C35.7853 17.061 35.795 17.0416 35.795 17.0068V14.283C35.795 14.2042 35.8344 14.1699 35.9081 14.1699H36.4539C36.5327 14.1699 36.567 14.2093 36.567 14.283V17.2774C36.567 17.4887 36.5276 17.6314 36.4539 17.7103C36.3751 17.7839 36.2575 17.8233 36.0999 17.8233H35.6477C35.5689 17.8233 35.5003 17.8182 35.4461 17.8136C35.3918 17.809 35.3427 17.7942 35.3033 17.7742C35.2639 17.7548 35.22 17.7251 35.1806 17.6806C35.1412 17.6412 35.0972 17.5869 35.043 17.5184L33.0958 14.9716C33.0764 14.9471 33.0518 14.9374 33.0267 14.9374H32.9776C32.9479 14.9374 32.9382 14.9568 32.9382 14.9916V17.7154C32.9382 17.7942 32.8988 17.8285 32.8251 17.8285H32.2792C32.2004 17.8285 32.161 17.7891 32.161 17.7154V14.721C32.161 14.5097 32.2004 14.3669 32.2741 14.2881C32.3529 14.2145 32.4705 14.1751 32.6281 14.1751H33.0901H33.0906Z" fill="#1B4ADD"/>
<path d="M41.4932 14.1751C41.572 14.1751 41.6114 14.2145 41.6114 14.2882V14.785C41.6114 14.8638 41.572 14.898 41.4932 14.898H39.2165C39.0789 14.898 38.9704 14.9078 38.8819 14.9323C38.7934 14.9569 38.7197 14.9911 38.6706 15.0454C38.6164 15.0996 38.577 15.1733 38.5576 15.2664C38.5382 15.36 38.5279 15.4731 38.5279 15.6055V15.6598H41.4732C41.552 15.6598 41.5863 15.6992 41.5863 15.7728V16.1857C41.5863 16.2645 41.5469 16.2988 41.4732 16.2988H38.5279V16.3873C38.5279 16.5249 38.5376 16.6379 38.5576 16.7265C38.577 16.8201 38.6164 16.8938 38.6706 16.9474C38.7249 17.0017 38.7934 17.0411 38.8819 17.0605C38.9704 17.0799 39.0835 17.0948 39.2165 17.0948H41.4932C41.572 17.0948 41.6114 17.1342 41.6114 17.2078V17.7046C41.6114 17.7834 41.572 17.8177 41.4932 17.8177H39.1971C38.9316 17.8177 38.7106 17.7931 38.5233 17.744C38.3412 17.6949 38.1887 17.6161 38.0711 17.5082C37.9529 17.4003 37.8695 17.2575 37.8153 17.0805C37.761 16.9035 37.7365 16.6922 37.7365 16.4415V15.5467C37.7365 15.296 37.761 15.0848 37.8153 14.9123C37.8695 14.7404 37.9529 14.5977 38.0711 14.4892C38.1893 14.3813 38.3366 14.2973 38.5233 14.2482C38.7055 14.1991 38.9316 14.1746 39.1971 14.1746H41.4932V14.1751Z" fill="#1B4ADD"/>
<path d="M10.6844 1.48979C10.7432 1.48979 10.7974 1.50464 10.8517 1.53376L19.6528 6.65239C19.7562 6.71121 19.8201 6.8197 19.815 6.93733L19.7807 17.1203C19.7807 17.2385 19.7168 17.3465 19.6134 17.4053L10.7826 22.4645C10.7335 22.4942 10.6747 22.5085 10.6153 22.5085C10.5559 22.5085 10.5022 22.4936 10.448 22.4645L1.64739 17.3465C1.54404 17.2877 1.48009 17.1792 1.48522 17.0615L1.51949 6.87852C1.51949 6.76031 1.58344 6.65239 1.6868 6.59358L10.5222 1.52919C10.5713 1.50464 10.6301 1.48979 10.6844 1.48979ZM10.6895 0C10.3749 0 10.0602 0.0788009 9.77987 0.240971L0.949036 5.30021C0.383726 5.62513 0.0342612 6.2247 0.0342612 6.87395L0 17.057C0 17.7062 0.344325 18.3058 0.904497 18.6353L9.70564 23.7539C9.98601 23.9161 10.3006 24 10.6153 24C10.9299 24 11.2445 23.9212 11.5249 23.759L20.3557 18.6998C20.9211 18.3754 21.2705 17.7753 21.2705 17.1266L21.3048 6.94361C21.3048 6.29436 20.9605 5.69479 20.4003 5.36531L11.5991 0.24611C11.3188 0.08394 11.0041 0 10.6895 0Z" fill="#1B4ADD"/>
<path d="M12.474 5.55078H11.1857C11.0875 5.55078 11.0036 5.6096 10.9693 5.70324L6.81971 17.0757C6.79001 17.1494 6.8494 17.2282 6.92763 17.2282H8.21585C8.31407 17.2282 8.39801 17.1693 8.43227 17.0757L12.5819 5.70324C12.6116 5.62958 12.5522 5.55078 12.474 5.55078ZM10.2173 5.55078H8.92906C8.83084 5.55078 8.7469 5.6096 8.71264 5.70324L4.5676 17.0711C4.53791 17.1448 4.59729 17.2236 4.67552 17.2236H5.96375C6.06196 17.2236 6.1459 17.1648 6.18016 17.0711L10.3252 5.70324C10.3549 5.62958 10.3006 5.55078 10.2173 5.55078ZM11.8892 9.95621C11.855 9.85285 11.7071 9.85285 11.6728 9.95621L11.0041 11.7949C10.9847 11.844 10.9847 11.9028 11.0041 11.9525L12.8725 17.0711C12.9068 17.1596 12.9907 17.2236 13.0889 17.2236H14.3772C14.456 17.2236 14.5148 17.1448 14.4851 17.0711L11.8892 9.95621ZM16.7372 17.0711L13.0153 6.86356C12.981 6.7602 12.8331 6.7602 12.7989 6.86356L12.1302 8.70224C12.1108 8.75135 12.1108 8.81017 12.1302 8.85985L15.1246 17.0711C15.1589 17.1596 15.2428 17.2236 15.341 17.2236H16.6293C16.7126 17.2287 16.7669 17.1448 16.7372 17.0711Z" fill="#1B4ADD"/>
</g>
<defs>
<clipPath id="clip0_11424_4341">
<rect width="95" height="24" fill="white"/>
</clipPath>
</defs>
</svg>

<svg xmlns="http://www.w3.org/2000/svg" fill="none" viewBox="0 0 95 24">
  <g clip-path="url(#arbitrum-one-logo-light_svg__a)">
    <path fill="#213147" d="M30.833 6.176c.221 0 .413.044.566.137.152.094.305.271.452.537l2.916 5.295c.03.059.034.108.019.148-.015.039-.059.058-.128.058h-1.12c-.1 0-.168-.04-.202-.113l-.625-1.136h-4.145l-.61 1.136c-.04.079-.108.113-.202.113H26.61c-.079 0-.123-.02-.138-.059-.015-.039-.01-.088.02-.147l2.896-5.3c.147-.266.29-.443.433-.536a.87.87 0 0 1 .491-.138h.522v.005Zm-1.716 3.899h3.039l-1.401-2.587c-.025-.039-.055-.063-.099-.063h-.054c-.04 0-.074.019-.098.063l-1.387 2.587Zm12.071-3.899c.679 0 1.16.152 1.456.457.295.305.442.757.442 1.357v.502c0 .506-.103.904-.31 1.2-.205.295-.54.481-1.007.565l1.51 1.868c.029.03.039.074.024.133-.01.058-.06.088-.143.088h-1.136a.367.367 0 0 1-.157-.024.37.37 0 0 1-.089-.089l-1.396-1.834H37.53v1.755c0 .128-.064.192-.192.192h-.953c-.138 0-.202-.064-.202-.192V6.441c0-.177.089-.266.266-.266h4.74Zm-3.653 3.147h3.378c.3 0 .512-.064.634-.192.123-.128.187-.325.187-.59v-.37c0-.265-.064-.461-.187-.589-.122-.128-.334-.192-.634-.192h-3.264c-.08 0-.114.034-.114.108v1.825Zm12.932-3.147c.605 0 1.037.122 1.293.363s.384.605.384 1.092v.423c0 .492-.187.865-.565 1.121.403.236.61.615.61 1.136v.511c0 .236-.025.448-.08.635a1.18 1.18 0 0 1-.26.482c-.122.132-.28.236-.482.305a2.29 2.29 0 0 1-.742.108h-5.241c-.177 0-.266-.089-.266-.266V6.442c0-.177.089-.266.266-.266h5.083ZM46.47 8.742h3.618c.295 0 .492-.044.6-.132.108-.089.157-.217.157-.388v-.3c0-.182-.049-.315-.152-.403-.103-.084-.27-.128-.497-.128h-3.609c-.079 0-.113.04-.113.113v1.239h-.005Zm0 .959v1.313c0 .079.039.113.113.113H50.2c.236 0 .403-.044.502-.128.098-.083.152-.221.152-.408v-.335c0-.182-.054-.32-.162-.413-.108-.093-.31-.143-.605-.143H46.47v.001Zm9.007-3.525c.128 0 .192.063.192.191v5.788c0 .128-.064.192-.192.192h-.954c-.137 0-.201-.064-.201-.192V6.367c0-.128.069-.191.201-.191h.954Zm9.243 0c.138 0 .202.063.202.191v.865c0 .138-.069.202-.201.202h-2.769v4.72c0 .128-.064.192-.192.192h-.963c-.128 0-.192-.064-.192-.192v-4.72h-2.769c-.137 0-.201-.069-.201-.202v-.865c0-.128.069-.191.201-.191h6.884Zm6.977 0c.679 0 1.16.152 1.456.457.295.305.442.757.442 1.357v.502c0 .506-.103.904-.31 1.2-.206.295-.54.481-1.007.565l1.51 1.868c.029.03.039.074.024.133-.01.058-.06.088-.143.088h-1.136a.367.367 0 0 1-.157-.024.37.37 0 0 1-.089-.089l-1.396-1.834h-2.852v1.755c0 .128-.064.192-.192.192h-.953c-.138 0-.202-.064-.202-.192V6.441c0-.177.089-.266.266-.266h4.74ZM68.05 9.323h3.378c.3 0 .512-.064.635-.192.122-.128.186-.325.186-.59v-.37c0-.265-.064-.461-.186-.589-.123-.128-.335-.192-.635-.192h-3.264c-.08 0-.113.034-.113.108v1.825h-.001Zm8.609-3.147c.128 0 .192.063.192.191v3.52c0 .237.02.434.059.586.039.158.103.28.192.369a.683.683 0 0 0 .359.192c.152.04.339.059.57.059h2.444c.23 0 .418-.02.57-.06a.764.764 0 0 0 .36-.191.771.771 0 0 0 .186-.369c.034-.158.054-.349.054-.585v-3.52c0-.129.064-.192.192-.192h.964c.128 0 .192.063.192.191v3.654c0 .423-.044.781-.133 1.081a1.613 1.613 0 0 1-.427.723c-.197.187-.453.32-.767.403a4.511 4.511 0 0 1-1.141.123h-2.542c-.448 0-.827-.04-1.136-.123a1.746 1.746 0 0 1-.762-.403 1.669 1.669 0 0 1-.433-.723c-.094-.295-.138-.659-.138-1.081V6.367c0-.128.07-.191.202-.191h.944-.001Zm10.123 0c.128 0 .242.01.335.024.094.02.177.05.246.103.07.05.133.119.192.202.054.083.113.196.172.34l1.834 4.233a.123.123 0 0 0 .123.079h.108a.123.123 0 0 0 .123-.08l1.834-4.233a2.15 2.15 0 0 1 .172-.339.672.672 0 0 1 .433-.305c.093-.02.2-.024.329-.024h.944c.305 0 .511.069.62.206.107.138.157.374.157.708v5.065c0 .128-.07.192-.202.192h-.9c-.128 0-.191-.064-.191-.192V7.548c0-.06-.025-.089-.07-.089h-.078c-.06 0-.099.025-.113.07l-1.78 3.953c-.07.157-.143.295-.217.403a1.469 1.469 0 0 1-.235.27.782.782 0 0 1-.29.153c-.109.03-.236.044-.384.044h-.424c-.147 0-.275-.015-.383-.044a.722.722 0 0 1-.29-.153 1.165 1.165 0 0 1-.236-.27 2.35 2.35 0 0 1-.217-.403l-1.78-3.954c-.019-.049-.054-.069-.112-.069h-.08c-.048 0-.068.03-.068.089v4.607c0 .128-.064.192-.192.192h-.9c-.138 0-.202-.064-.202-.192V7.09c0-.334.055-.57.158-.708.108-.137.314-.206.625-.206h.939Z"/>
    <path fill="#1B4ADD" d="M29.53 14.175c.266 0 .487.025.675.074.186.049.339.132.452.24a.89.89 0 0 1 .25.424c.055.172.08.383.08.634v.895c0 .25-.025.462-.08.639a.97.97 0 0 1-.25.428 1.048 1.048 0 0 1-.452.235c-.187.05-.413.074-.674.074h-1.613c-.265 0-.486-.024-.674-.074a1.071 1.071 0 0 1-.452-.235.933.933 0 0 1-.256-.428 2.199 2.199 0 0 1-.078-.639v-.895c0-.25.024-.462.078-.634a.947.947 0 0 1 .256-.423c.118-.109.266-.192.452-.241.183-.05.409-.074.674-.074h1.613Zm-2.27 2.217c0 .138.01.251.034.34a.466.466 0 0 0 .113.22.417.417 0 0 0 .211.114c.088.019.202.034.335.034H29.5c.138 0 .246-.01.335-.034a.457.457 0 0 0 .211-.113.472.472 0 0 0 .113-.221 1.35 1.35 0 0 0 .034-.34v-.781c0-.138-.01-.251-.034-.34a.467.467 0 0 0-.113-.22.417.417 0 0 0-.211-.114 1.294 1.294 0 0 0-.335-.034h-1.548c-.138 0-.247.01-.335.034a.456.456 0 0 0-.211.113.472.472 0 0 0-.113.221 1.367 1.367 0 0 0-.035.34v.781Zm5.83-2.217c.084 0 .153.005.207.01a.37.37 0 0 1 .148.044.53.53 0 0 1 .118.093c.04.04.083.094.132.158l1.942 2.547c.015.024.035.034.07.034h.049c.03 0 .039-.02.039-.054v-2.724c0-.079.04-.113.113-.113h.546c.079 0 .113.04.113.113v2.994c0 .212-.04.354-.113.433-.079.074-.197.113-.354.113h-.452c-.08 0-.148-.005-.202-.01a.391.391 0 0 1-.265-.132 1.977 1.977 0 0 1-.138-.163l-1.947-2.546a.085.085 0 0 0-.07-.035h-.048c-.03 0-.04.02-.04.055v2.723c0 .08-.04.113-.113.113h-.546c-.079 0-.118-.039-.118-.113v-2.994c0-.211.04-.354.113-.433.079-.074.197-.113.354-.113h.462Zm8.403 0c.079 0 .118.04.118.113v.497c0 .079-.039.113-.118.113h-2.276c-.138 0-.247.01-.335.034a.434.434 0 0 0-.211.113.43.43 0 0 0-.113.221c-.02.094-.03.207-.03.34v.054h2.945c.079 0 .113.04.113.113v.413c0 .079-.04.113-.113.113h-2.945v.088c0 .138.01.25.03.34a.414.414 0 0 0 .113.22.416.416 0 0 0 .21.114c.09.019.203.034.336.034h2.276c.079 0 .118.04.118.113v.497c0 .078-.039.113-.118.113h-2.296c-.265 0-.486-.025-.674-.074a1.071 1.071 0 0 1-.452-.236.931.931 0 0 1-.256-.427 2.195 2.195 0 0 1-.078-.64v-.894c0-.251.024-.462.078-.635a.946.946 0 0 1 .256-.423c.118-.108.266-.192.452-.24a2.6 2.6 0 0 1 .674-.074h2.296ZM10.684 1.49c.06 0 .113.015.168.044l8.8 5.118a.314.314 0 0 1 .163.285l-.034 10.183a.328.328 0 0 1-.168.285l-8.83 5.06a.344.344 0 0 1-.335 0l-8.8-5.119a.314.314 0 0 1-.163-.285L1.52 6.88c0-.119.064-.227.168-.285l8.835-5.065a.375.375 0 0 1 .162-.04ZM10.69 0c-.315 0-.63.079-.91.241L.949 5.301a1.817 1.817 0 0 0-.915 1.573L0 17.057c0 .65.344 1.249.904 1.578l8.802 5.119a1.82 1.82 0 0 0 1.819.005l8.83-5.06c.566-.324.915-.924.915-1.572l.035-10.183c0-.65-.345-1.25-.905-1.579L11.6.246A1.82 1.82 0 0 0 10.69 0Z"/>
    <path fill="#1B4ADD" d="M12.474 5.55h-1.288a.227.227 0 0 0-.217.153L6.82 17.076c-.029.073.03.152.109.152h1.288a.227.227 0 0 0 .216-.152l4.15-11.373c.03-.073-.03-.152-.108-.152Zm-2.257 0H8.93a.227.227 0 0 0-.216.153L4.568 17.071c-.03.074.03.153.108.153h1.288a.227.227 0 0 0 .216-.153l4.145-11.368c.03-.073-.024-.152-.108-.152Zm1.672 4.406c-.034-.103-.182-.103-.216 0l-.669 1.839a.22.22 0 0 0 0 .158l1.869 5.118a.234.234 0 0 0 .216.153h1.288c.079 0 .138-.08.108-.153L11.89 9.956Zm4.848 7.115L13.015 6.864a.114.114 0 0 0-.216 0l-.669 1.838a.22.22 0 0 0 0 .158l2.995 8.211a.234.234 0 0 0 .216.153h1.288a.11.11 0 0 0 .108-.153Z"/>
  </g>
  <defs>
    <clipPath id="arbitrum-one-logo-light_svg__a">
      <path fill="#fff" d="M0 0h95v24H0z"/>
    </clipPath>
  </defs>
</svg>
